X: 1
T: Chris Worrall
C:\251 George Meikle
B: George Meikle "Originally Mine" p.10
R: reel
Z: 2010 John Chambers <jc:trillian.mit.edu>
M: 4/4
L: 1/8
K: Am
e \
|: "Am"Aee2 "Em"dBBd | "Am"Aee2 "D7"d2e^f |\
"G"g2^fg "D7"edBd | "G"(3GGG GA "Em"BAGB |
"Am"Aee2 "Em"dBBd | "Am"Aee2 "D7"d2e^f |\
"G"g2^fg "Em"edBd |1 "Am"(3AAA "G"BG "Am"A3 e :|2 "Am"(3AAA "G"BG "Am"A3"E7"e ||
|: "Am"Aaa2 "Em"gee2 | "Am"Aee2 "D7"e2de |\
"G"g2^fg "D7"edBd | "G"(3GGG GA "Em"BAGB |
"Am"Aaa2 "B/Em"gee2 | "C/Am"Agg2 "D7"e2de |\
"G"g2^fg "Em"edBd |1 "Am"(3AAA "G"BG "Am"A3 e :|2 "Am"(3AAA "G"BG "Am"A2A2 |]
%%begintext align
Chris Worrall was the producer of the Lothian Scottish Dance Band's first recording. We first met Chris
when he asked us to make several broadcasts for Radio Forth and we liked the studio so much we used it
for our first two LP recordings. Chris later moved to join the BBC where he produced the Scottish Dance
Music programme every Saturday evening.
%%endtext

%%sep 1 1 500
%%sep 1 1 500

